!!!OTL: EY MAI LIEBE MALCHEN HIE
!!!ARE: Europa, Mitteleuropa, Deutschland, Kuhlaendchen
!!!SCT: Z0242
!!!YEM: Copyright 1995, estate of Helmut Schaffrath.
**kern
*ICvox
*Ivox
*M3/4
*k[f#c#g#d#]
*E:
=1
{8b
8b
4b
4ee
=2
8ddn
8ddn
4ddn}
{4b
=3
8a
8b
8a
8b
8ccn
8a
=4
2b
8r}
{8e
=5
8e
8f#
8gn
8gn
8f#
8f#
=6
8gn
8e
8dn
8dn
8gn}
{8gn
=7
16f#
16f#
16gn
16gn
16a
16a
16a
16a
8f#
8d#
=8
2e
4r}
==
!!!AGN: Schiffer -, Handwerker - Lied
!! "Die Flachsbrecherinnen singen einander nach der Reihe zu. "
!!!ONB: ESAC (Essen Associative Code) Database: ZUCCAL
!!!AMT: simple triple
!!!AIN: vox
!!!EED: Helmut Schaffrath
!!!EEV: 1.0
*-
